X: 3
T: Ash Grove v.1
P: piffero primo b0054
O: safd
%R: waltz
F: http://ancients.sudburymuster.org/mus/col/pdf/hymnsF.pdf
Z: 2020 John Chambers <jc:trillian.mit.edu>
M: 3/4
L: 1/8
K: G
D2 |\
G2B2d2 | B2G2G2 | A2cBAG | F2D2D2 |\
G2BAGF | E2C2E2 | D2G2F2 | G4 :: Bc |\
d2Bcde | d2c2B2 | c2ABcd | c2B2A2 |
B2GABc | B2A2G2 | A2d2^c2 | d4 D2 |\
G2B2d2 | B2G2G2 | A2cBAG | F2D2D2 |\
G2BAGF | E2C2E2 | D2G2F2 | G4 :|


